X: 5
T: Missa [Bergerette savoysienne] / Agnus Dei
N: Derived from Ano1001e-Missa_Bergerette_savoysienne-Agnus-Jena_32.krn
C: Anonymous
%%abc-version 2.0
%%abcx-abcm2ps-target-version 5.9.1 (29 Sep 2008)
%%abc-creator hum2abc beta
%%abcx-conversion-date 2019/02/16 20:18:26
%%abc-edited-by Jesse Rodin
%%abc-edited-by Jesse Rodin 8/14/2013
%%abcx-initial-encoding-date 2013/08/14/
%%humdrum-veritas 923861325
%%humdrum-veritas-data 735825272
%%linebreak <none>
%%barnumbers 0
L: 1/4
M: 2/1
Q: 1/2=120
%%staves [1 2 3 4]
V: 1 clef=treble
V: 2 clef=treble-8
V: 3 clef=treble-8
V: 4 clef=bass
K: C
[V:1] z8 | 
[V:2] g6fe | 
[V:3] c8 | 
[V:4] z8 | 
[V:1] z8 | 
[V:2] f4e4 | 
[V:3] d4e4 | 
[V:4] z8 | 
[V:1] c8 | 
[V:2] z8 | 
[V:3] e2f3edc | 
[V:4] z8 | 
[V:1] d4e4 | 
[V:2] z4g4 | 
[V:3] B4c4 | 
[V:4] z8 | 
[V:1] e4e2e2- | 
[V:2] a4g2c'2- | 
[V:3] ABcde2A2 | 
[V:4] z8 | 
[V:1] edc4BA | 
[V:2] c'baga4 | 
[V:3] c4F4 | 
[V:4] z8 | 
[V:1] B4z4 | 
[V:2] g6f2 | 
[V:3] G3ABcd2- | 
[V:4] z8 | 
[V:1] f4e2d2- | 
[V:2] a4g4 | 
[V:3] dcABc2G2 | 
[V:4] z8 | 
[V:1] dcBAe2d2- | 
[V:2] f4g4 | 
[V:3] d4c2B2 | 
[V:4] z8 | 
[V:1] dcc4B2 | 
[V:2] e2f2d4 | 
[V:3] c2A2G4 | 
[V:4] z8 | 
[V:1] c8 | 
[V:2] c4e4 | 
[V:3] z2g4fe | 
[V:4] C,8 | 
[V:1] A4G4 | 
[V:2] d4B2c2- | 
[V:3] f4e4 | 
[V:4] D,4E,4 | 
[V:1] G2G4FE | 
[V:2] c2BAB4 | 
[V:3] e2e4dc | 
[V:4] E,4E,2E,2- | 
[V:1] G4E4 | 
[V:2] G4c4 | 
[V:3] B2c2G4 | 
[V:4] E,D,C,4B,,A,, | 
[V:1] D2d4cB | 
[V:2] B2B4AG | 
[V:3] d4z2d2 | 
[V:4] B,,8 | 
[V:1] c4A4 | 
[V:2] c4d4 | 
[V:3] e4f4 | 
[V:4] z8 | 
[V:1] G2ABc4 | 
[V:2] e4c4 | 
[V:3] e2g4fe | 
[V:4] z8 | 
[V:1] d4e4 | 
[V:2] f4g3e | 
[V:3] d4c2e2 | 
[V:4] z8 | 
[V:1] A3Bc2B2- | 
[V:2] f2d2e3d | 
[V:3] d2cBA2G2 | 
[V:4] z8 | 
[V:1] BAA4^G2 | 
[V:2] c2d2B4 | 
[V:3] F4E4 | 
[V:4] z8 | 
[V:1] A2c4BA | 
[V:2] A3Bc2d2- | 
[V:3] F2A4GF | 
[V:4] F,6F,2 | 
[V:1] G4F4 | 
[V:2] d2^c2d4 | 
[V:3] G4A4- | 
[V:4] E,4D,4- | 
[V:1] D4z2E2- | 
[V:2] f4e4 | 
[V:3] A2B2c4 | 
[V:4] D,2C,D,C,4- | 
[V:1] E2DCD4 | 
[V:2] c4z4 | 
[V:3] G8 | 
[V:4] C,2B,,C,B,,2A,,B,, | 
[V:1] E4C2G2 | 
[V:2] c8- | 
[V:3] z4G4 | 
[V:4] C,8- | 
[V:1] E3FG4- | 
[V:2] c8 | 
[V:3] A4G4 | 
[V:4] C,8 | 
[V:1] G2A2B2G2- | 
[V:2] e4d2e2- | 
[V:3] c4B2c2- | 
[V:4] z8 | 
[V:1] G2c4B2 | 
[V:2] e2dcd4 | 
[V:3] cBA2G4 | 
[V:4] z8 | 
[V:1] c8 ||  
[V:2] c8 ||  
[V:3] g8 ||  
[V:4] C,8 ||  
[V:1]  [K:C] [K:clef=treble][M:2/1]g8 | 
[V:2]  [K:C] [K:clef=treble-8][M:2/1]g8 | 
[V:3]  [K:C] [K:clef=treble-8][M:2/1]e8 | 
[V:4]  [K:C] [K:clef=bass][M:2/1]E,4E,4 | 
[V:1] f4d4 | 
[V:2] a4b4 | 
[V:3] f4g4 | 
[V:4] D,4G,4- | 
[V:1] e4c2d2- | 
[V:2] g4a4 | 
[V:3] e4f4 | 
[V:4] G,4F,4 | 
[V:1] dcBAB4 | 
[V:2] g8 | 
[V:3] d8 | 
[V:4] G,8 | 
[V:1] c8 | 
[V:2] z4g4 | 
[V:3] c8 | 
[V:4] z8 | 
[V:1] z4c4 | 
[V:2] f2a3gfe | 
[V:3] z4c4 | 
[V:4] F,6F,2 | 
[V:1] A2d2B2c2- | 
[V:2] f4g4 | 
[V:3] d4e4 | 
[V:4] F,4E,4- | 
[V:1] c2A4B2- | 
[V:2] e4f4 | 
[V:3] c4d4 | 
[V:4] E,2D,2D,4- | 
[V:1] B2G4A2- | 
[V:2] d4e4 | 
[V:3] B4c4 | 
[V:4] D,4C,4 | 
[V:1] AG^FEF4 | 
[V:2] d8 | 
[V:3] A8 | 
[V:4] D,8 | 
[V:1] z2G2A2B2 | 
[V:2] z8 | 
[V:3] G4z2G2 | 
[V:4] z8 | 
[V:1] c6B2 | 
[V:2] z8 | 
[V:3] A6G2 | 
[V:4] z8 | 
[V:1] A2GFGFED | 
[V:2] z8 | 
[V:3] F4E4 | 
[V:4] z8 | 
[V:1] C2F4E2 | 
[V:2] z8 | 
[V:3] F4G4 | 
[V:4] z8 | 
[V:1] F4G2A2 | 
[V:2] z2d2e2f2 | 
[V:3] z8 | 
[V:4] z4z2D,2 | 
[V:1] G2E4F2 | 
[V:2] g6f2 | 
[V:3] z8 | 
[V:4] E,6D,2 | 
[V:1] G4z2G2- | 
[V:2] e2dcdcBA | 
[V:3] z8 | 
[V:4] C,4B,,4 | 
[V:1] G2FEF4 | 
[V:2] G2c4B2 | 
[V:3] z4z2d2 | 
[V:4] C,4D,4 | 
[V:1] E2B2c2d2 | 
[V:2] z8 | 
[V:3] e6d2 | 
[V:4] z8 | 
[V:1] e2dcdcBA | 
[V:2] z8 | 
[V:3] c4B4 | 
[V:4] z8 | 
[V:1] G2c4B2 | 
[V:2] z8 | 
[V:3] c4d4 | 
[V:4] z4z2G,2 | 
[V:1] c4z4 | 
[V:2] z2e2f2g2 | 
[V:3] z8 | 
[V:4] A,6G,2 | 
[V:1] z8 | 
[V:2] a2gfgfed | 
[V:3] z8 | 
[V:4] F,4E,4 | 
[V:1] z8 | 
[V:2] c2f4e2 | 
[V:3] z8 | 
[V:4] F,4G,4 | 
[V:1] z2A3Bc2 | 
[V:2] f8 | 
[V:3] d6c2 | 
[V:4] z8 | 
[V:1] d3cB2AG | 
[V:2] d8- | 
[V:3] B2A2G4 | 
[V:4] G,8 | 
[V:1] F2G4^F2 | 
[V:2] d8 | 
[V:3] A8 | 
[V:4] D,8 | 
[V:1] G8 | 
[V:2] z8 | 
[V:3] G8 | 
[V:4] E,4C,4 | 
[V:1] z2d3ef2 | 
[V:2] _b8 | 
[V:3] g6f2 | 
[V:4] z8 | 
[V:1] g3fe2dc | 
[V:2] g8- | 
[V:3] e2d2c4 | 
[V:4] C8 | 
[V:1] B2c4B2 | 
[V:2] g8 | 
[V:3] d8 | 
[V:4] G,8 | 
[V:1] c8 | 
[V:2] z8 | 
[V:3] c8 | 
[V:4] A,4F,4 | 
[V:1] z8 | 
[V:2] g3fede2- | 
[V:3] z8 | 
[V:4] z2G,3F,E,D, | 
[V:1] z8 | 
[V:2] edc4B2 | 
[V:3] z8 | 
[V:4] C,2E,2F,2G,2 | 
[V:1] g3fede2- | 
[V:2] c4z4 | 
[V:3] z2g3fed | 
[V:4] C,4z4 | 
[V:1] edc4B2 | 
[V:2] z8 | 
[V:3] c2e2f2g2 | 
[V:4] z8 | 
[V:1] c4z4 | 
[V:2] g3fede2- | 
[V:3] c4z4 | 
[V:4] C,6C,2- | 
[V:1] z8 | 
[V:2] edc4B2 | 
[V:3] z8 | 
[V:4] C,D,E,2F,2G,2 | 
[V:1] g3fede2- | 
[V:2] c4z2c2- | 
[V:3] z2g3fed | 
[V:4] C,6C2- | 
[V:1] edc4B2 | 
[V:2] cdefg3f | 
[V:3] c4d4 | 
[V:4] CB,A,2G,4 | 
[V:1] c8- | 
[V:2] ede3dcB | 
[V:3] c8- | 
[V:4] C,8- | 
[V:1] c8- | 
[V:2] A4G4 | 
[V:3] c8- | 
[V:4] C,8- | 
[V:1] c8 |]  
[V:2] g8 |]  
[V:3] c8 |]  
[V:4] C,8 |]  



